src/assets/icons/visa.svg

<?xml version="1.0" encoding="UTF-8"?>
<svg width="32px" height="20px" viewBox="0 0 32 20" version="1.1" xmlns="http://www.w3.org/2000/svg" xmlns:xlink="http://www.w3.org/1999/xlink">
    <!-- Generator: Sketch 53 (72520) - https://sketchapp.com -->
    <title>visa</title>
    <desc>Created with Sketch.</desc>
    <g id="Page-1" stroke="none" stroke-width="1" fill="none" fill-rule="evenodd">
        <g id="visa" fill-rule="nonzero">
            <rect id="Rectangle-20" fill="#F6F6F6" x="0" y="1.8" width="32" height="16"></rect>
            <path d="M29.6,2.02293374e-07 C28,3.53289176e-07 11.0601562,-3.20636746e-07 1.6,2.02293374e-07 C0.8,2.46515064e-07 3.12638805e-14,0.800000202 7.10542736e-14,1.6000002 L7.10542736e-14,4.0000002 L32,4.0000002 C32,4.0000002 31.9999996,7.71438822 32,2.4000002 C32,0.800000202 31.2,2.02293374e-07 29.6,2.02293374e-07 Z" id="Rectangle-1" fill="#265697"></path>
            <path d="M0,16 C0,16 0,16 0,17.6000001 C-9.2567974e-08,19.2 0.8,19.9999999 2.4,19.9999999 C11.3246419,19.9999999 28,20 29.6,19.9999999 C31.2,19.9999999 32,19.2 32,17.6000001 L32,16 L0,16 Z" id="Rectangle-1" fill="#D97B16"></path>
            <path d="M22.322909,5.95642168 C21.8744,5.78449656 21.1716848,5.6 20.2940546,5.6 C18.0572788,5.6 16.4816848,6.75102266 16.4682364,8.40056748 C16.4556364,9.6199527 17.5930727,10.3001537 18.4517394,10.7061241 C19.3328909,11.122065 19.629097,11.3873655 19.6248545,11.7587862 C19.619297,12.3276217 18.9212061,12.5875034 18.2705879,12.5875034 C17.3645333,12.5875034 16.8831879,12.4588847 16.1397455,12.1420414 L15.8480364,12.0071803 L15.5303212,13.9068966 C16.0590121,14.1437596 17.0367636,14.3490207 18.0519333,14.3596414 C20.4314666,14.3596414 21.9762182,13.2218404 21.9937818,11.4603232 C22.002309,10.4949241 21.3991636,9.76027586 20.0932182,9.15463646 C19.3019636,8.76206108 18.8173939,8.50009852 18.8225273,8.10258128 C18.8225273,7.74984434 19.2326848,7.37265812 20.1188848,7.37265812 C20.8591454,7.36091034 21.3953454,7.52585616 21.8131818,7.69778128 L22.0160122,7.79570838 L22.322909,5.95642168" id="Shape" fill="#265697"></path>
            <path d="M28.127691,5.75558226 L26.378497,5.75558226 C25.8366546,5.75558226 25.4311212,5.9066995 25.1931636,6.45932216 L21.8312122,14.236398 L24.2082848,14.236398 C24.2082848,14.236398 24.5969334,13.1907153 24.6848364,12.961135 C24.9446,12.961135 27.2538364,12.9647764 27.5839394,12.9647764 C27.651691,13.2618522 27.8593576,14.236398 27.8593576,14.236398 L29.9598666,14.236398 L28.127691,5.75558226 L28.127691,5.75558226 Z M25.336303,11.2253675 C25.5235212,10.7364256 26.2382,8.85309556 26.2382,8.85309556 C26.2248364,8.87568078 26.4240182,8.36176946 26.5383516,8.04314876 L26.6913334,8.77480592 C26.6913334,8.77480592 27.1247818,10.8004966 27.2154,11.2252808 L25.336303,11.2253675 L25.336303,11.2253675 L25.336303,11.2253675 L25.336303,11.2253675 Z" id="Shape" fill="#265697"></path>
            <polygon id="Shape" fill="#265697" points="11.8499758 14.2337103 13.2652909 5.74747586 15.5290061 5.74747586 14.1127152 14.2337103"></polygon>
            <path d="M9.95136364,5.75367488 L7.73512122,11.5406502 L7.49898788,10.3646148 C7.08641212,9.00893794 5.80095758,7.54011822 4.36387878,6.80477636 L6.39035758,14.2263842 L8.78541818,14.2236099 L12.3492242,5.75367488 L9.95136364,5.75367488" id="Shape" fill="#265697"></path>
            <path d="M5.67911516,5.74842956 L2.0288909,5.74842956 L2,5.9249931 C4.83983636,6.62743252 6.71893334,8.32496552 7.49894546,10.3646148 L6.7052303,6.46487094 C6.5682,5.92750738 6.1707697,5.76715666 5.67911516,5.74842956" id="Shape" fill="#D97B16"></path>
        </g>
    </g>
</svg>

<svg width="32" height="20" xmlns="http://www.w3.org/2000/svg"><g fill-rule="nonzero" fill="none"><path fill="#F6F6F6" d="M0 1.8h32v16H0z"/><path d="M29.6 0h-28C.8 0 0 .8 0 1.6V4h32V2.4C32 .8 31.2 0 29.6 0z" fill="#265697"/><path d="M0 16v1.6C0 19.2.8 20 2.4 20h27.2c1.6 0 2.4-.8 2.4-2.4V16H0z" fill="#D97B16"/><path d="M22.323 5.956a5.736 5.736 0 00-2.029-.356c-2.237 0-3.812 1.151-3.826 2.8-.012 1.22 1.125 1.9 1.984 2.306.88.416 1.177.681 1.173 1.053-.006.569-.704.829-1.354.829-.906 0-1.388-.13-2.131-.446l-.292-.135-.318 1.9c.529.237 1.507.442 2.522.453 2.38 0 3.924-1.138 3.942-2.9.008-.965-.595-1.7-1.9-2.305-.792-.393-1.277-.655-1.271-1.052 0-.353.41-.73 1.296-.73a4.099 4.099 0 011.694.325l.203.098.307-1.84M28.128 5.756h-1.75c-.541 0-.947.15-1.185.703l-3.362 7.777h2.377s.389-1.045.477-1.275l2.899.004c.068.297.275 1.271.275 1.271h2.1l-1.831-8.48zm-2.792 5.47c.188-.49.902-2.373.902-2.373-.013.023.186-.491.3-.81l.153.732.524 2.45h-1.879zM11.85 14.234l1.415-8.487h2.264l-1.416 8.487zM9.951 5.754L7.735 11.54 7.5 10.365c-.413-1.356-1.698-2.825-3.135-3.56l2.026 7.421 2.395-.002 3.564-8.47H9.951" fill="#265697"/><path d="M5.68 5.748H2.028L2 5.925c2.84.702 4.719 2.4 5.499 4.44l-.794-3.9c-.137-.537-.534-.698-1.026-.717" fill="#D97B16"/></g></svg>
